X:1
T: Hon. Miss Elliot
C:J. Pringle
R:Strathspey
Q: 128
K:F
M:4/4
L:1/16
|:C2|F3G A3B c2A2 F4|G3A BAGF EC3 C2E2|F3G A2Bc D3E FdcB|AcfA GdcB A2F2 F2A2|
F3G A3B c2A2 F4|G3A BAGF EC3 C2E2|F3G A2Bc D3E FdcB|AcfA GdcB A2F2 F2c2|
fefg a3c B3d g3f|efgc BAGF EC3 C2c2|fefa c2A2 d3e1/2f1/2 c2A2|B2cd G2cB A2F2 F2c2|
fefg a3c B3d g3f|efcA dBGF EC3 C2cB|A3c d2B2 G2AB c2cB|AcfA GdcB A2F2 F2:|
